packages/blockchain-info-components/src/Images/img/swap-white.svg

<svg fill="none" height="25" viewBox="0 0 25 25" width="25" xmlns="http://www.w3.org/2000/svg"><circle cx="12.6875" cy="12.4999" fill="#fff" r="12"/><path d="m10.3939 7.37153c-.2929-.2929-.76775-.2929-1.06064-.00001l-4.59797 4.59798c-.29289.2929-.29289.7678.00001 1.0606l4.59796 4.598c.29289.2929.76774.2929 1.06064 0l.3553-.3553c.2929-.2929.2929-.7678 0-1.0607l-2.71248-2.7125h9.30688l-2.7125 2.7125c-.2929.2929-.2929.7678 0 1.0607l.3554.3554c.2928.2929.7677.2929 1.0606 0l4.598-4.598c.2929-.2929.2929-.7678 0-1.0607l-4.598-4.59793c-.2929-.29289-.7678-.29289-1.0606 0l-.3554.35532c-.2929.2929-.2929.76777 0 1.06066l2.7096 2.70955h-9.30098l2.70958-2.70955c.2929-.29289.2929-.76777 0-1.06066z" fill="#0c6cf2"/></svg>

<svg width="25" height="25" viewBox="0 0 25 25" fill="none" xmlns="http://www.w3.org/2000/svg">
<circle cx="12.6875" cy="12.4999" r="12" fill="white"/>
<path d="M10.3939 7.37153C10.101 7.07863 9.62615 7.07863 9.33326 7.37152L4.73529 11.9695C4.4424 12.2624 4.4424 12.7373 4.7353 13.0301L9.33326 17.6281C9.62615 17.921 10.101 17.921 10.3939 17.6281L10.7492 17.2728C11.0421 16.9799 11.0421 16.505 10.7492 16.2121L8.03672 13.4996H17.3436L14.6311 16.2121C14.3382 16.505 14.3382 16.9799 14.6311 17.2728L14.9865 17.6282C15.2793 17.9211 15.7542 17.9211 16.0471 17.6282L20.6451 13.0302C20.938 12.7373 20.938 12.2624 20.6451 11.9695L16.0471 7.37157C15.7542 7.07868 15.2793 7.07868 14.9865 7.37157L14.6311 7.72689C14.3382 8.01979 14.3382 8.49466 14.6311 8.78755L17.3407 11.4971H8.03972L10.7493 8.78755C11.0422 8.49466 11.0422 8.01978 10.7493 7.72689L10.3939 7.37153Z" fill="#0C6CF2"/>
</svg>
